X:1
T:Title
L:1/8
Q:1/4=100
M:4/4
K:Ab
V:1 treble nm="Grand Piano"
V:1
 c c2 d cBB=A | B8 | B B2 c BAAG | A8 | A A2 B AGGF | G2 GG A2 B2 | c4- ccBA | c8 | c c2 d cBB=A | %9
w: ????~????~???? * * * * * *|||||||||
 B8 | B B2 c BAAG | A8 | A A2 B AGGF | G2 GG A2 B2 | c4- ccBA | c8 | G2 GG AGF=E | F4- FCAG | %18
w: |||||||||
 D4- DDBA | G4- GGBA | G3 G AGAB | c4- ccdd | G4- GBcc | F4- FFBA | G3 G AGAB | c8 |] %26
w: ||||||||

